status/16/media-playback-stopped.svg

<?xml version="1.0" encoding="UTF-8" standalone="no"?>
<svg
   width="16"
   height="16"
   version="1.1"
   id="svg24"
   xmlns:xlink="http://www.w3.org/1999/xlink"
   xmlns="http://www.w3.org/2000/svg"
   xmlns:svg="http://www.w3.org/2000/svg"
   xmlns:rdf="http://www.w3.org/1999/02/22-rdf-syntax-ns#"
   xmlns:cc="http://creativecommons.org/ns#"
   xmlns:dc="http://purl.org/dc/elements/1.1/">
   <defs>
      <style id="current-color-scheme" type="text/css">
         .ColorScheme-Text { color: #0abdc6; } .ColorScheme-Highlight { color:#5294e2; }
      </style>
      <linearGradient id="arrongin" x1="0%" x2="0%" y1="0%" y2="100%">
         <stop offset="0%" style="stop-color:#dd9b44; stop-opacity:1"/>
         <stop offset="100%" style="stop-color:#ad6c16; stop-opacity:1"/>
      </linearGradient>
      <linearGradient id="aurora" x1="0%" x2="0%" y1="0%" y2="100%">
         <stop offset="0%" style="stop-color:#09D4DF; stop-opacity:1"/>
         <stop offset="100%" style="stop-color:#9269F4; stop-opacity:1"/>
      </linearGradient>
      <linearGradient id="cyberneon" x1="0%" x2="0%" y1="0%" y2="100%">
         <stop offset="0" style="stop-color:#0abdc6; stop-opacity:1"/>
         <stop offset="1" style="stop-color:#ea00d9; stop-opacity:1"/>
      </linearGradient>
      <linearGradient id="fitdance" x1="0%" x2="0%" y1="0%" y2="100%">
         <stop offset="0%" style="stop-color:#1AD6AB; stop-opacity:1"/>
         <stop offset="100%" style="stop-color:#329DB6; stop-opacity:1"/>
      </linearGradient>
      <linearGradient id="oomox" x1="0%" x2="0%" y1="0%" y2="100%">
         <stop offset="0%" style="stop-color:#0abdc6; stop-opacity:1"/>
         <stop offset="100%" style="stop-color:#b800ff; stop-opacity:1"/>
      </linearGradient>
      <linearGradient id="rainblue" x1="0%" x2="0%" y1="0%" y2="100%">
         <stop offset="0%" style="stop-color:#00F260; stop-opacity:1"/>
         <stop offset="100%" style="stop-color:#0575E6; stop-opacity:1"/>
      </linearGradient>
      <linearGradient id="sunrise" x1="0%" x2="0%" y1="0%" y2="100%">
         <stop offset="0%" style="stop-color: #FF8501; stop-opacity:1"/>
         <stop offset="100%" style="stop-color: #FFCB01; stop-opacity:1"/>
      </linearGradient>
      <linearGradient id="telinkrin" x1="0%" x2="0%" y1="0%" y2="100%">
         <stop offset="0%" style="stop-color: #b2ced6; stop-opacity:1"/>
         <stop offset="100%" style="stop-color: #6da5b7; stop-opacity:1"/>
      </linearGradient>
      <linearGradient id="60spsycho" x1="0%" x2="0%" y1="0%" y2="100%">
         <stop offset="0%" style="stop-color: #df5940; stop-opacity:1"/>
         <stop offset="25%" style="stop-color: #d8d15f; stop-opacity:1"/>
         <stop offset="50%" style="stop-color: #e9882a; stop-opacity:1"/>
         <stop offset="100%" style="stop-color: #279362; stop-opacity:1"/>
      </linearGradient>
      <linearGradient id="90ssummer" x1="0%" x2="0%" y1="0%" y2="100%">
         <stop offset="0%" style="stop-color: #f618c7; stop-opacity:1"/>
         <stop offset="20%" style="stop-color: #94ffab; stop-opacity:1"/>
         <stop offset="50%" style="stop-color: #fbfd54; stop-opacity:1"/>
         <stop offset="100%" style="stop-color: #0f83ae; stop-opacity:1"/>
      </linearGradient>
   </defs>
  <path
     d="M 6.6796875,4 C 4.0846901,4 3.7148438,4.3708932 3.7148438,6.9628906 V 9.0371094 C 3.7148438,11.629107 4.0846901,12 6.6796875,12 h 2.640625 C 11.91531,12 12.285156,11.629107 12.285156,9.0371094 V 6.9628906 C 12.285156,4.3708932 11.91531,4 9.3203125,4 Z"
     style="fill:url(#oomox);fill-rule:evenodd"
     id="path4"
     class="ColorScheme-Text"/>
  <path
     d="M 5.5351562,0.53320312 C 0.69216109,0.53320313 0,1.2235048 0,6.0625 v 3.875 c 0,4.837995 0.69216109,5.529297 5.5351562,5.529297 H 10.464844 C 15.307839,15.466797 16,14.775495 16,9.9375 V 6.0625 C 16,1.2235048 15.307839,0.53320312 10.464844,0.53320312 Z m -0.00586,1.49609378 h 4.9414061 c 0.52,0 1.028829,0.011016 1.548828,0.041016 0.37,0.02 0.729844,0.059141 1.089844,0.1191406 0.22,0.04 0.43086,0.1014064 0.630859,0.1914063 0.09,0.04 0.18,0.098203 0.25,0.1582031 0.07,0.08 0.120157,0.1600001 0.160157,0.25 0.09,0.1999998 0.149453,0.4108596 0.189453,0.6308594 0.06,0.3599996 0.101094,0.7198441 0.121094,1.0898437 0.03,0.5199995 0.03906,1.0307818 0.03906,1.5507813 v 3.8789062 0.00977 c 0,0.5099992 -0.0091,1.0210162 -0.03906,1.5410152 -0.02,0.37 -0.06109,0.729844 -0.121094,1.089844 -0.04,0.22 -0.09945,0.43086 -0.189453,0.63086 -0.04,0.09 -0.09016,0.17 -0.160157,0.25 -0.07,0.06 -0.16,0.118203 -0.25,0.158203 -0.199999,0.09 -0.410859,0.151406 -0.630859,0.191406 -0.36,0.06 -0.719844,0.09914 -1.089844,0.119141 -0.519999,0.03 -1.028828,0.04101 -1.548828,0.04101 H 5.5292969 c -0.5199995,0 -1.0288287,-0.01102 -1.5488281,-0.04101 -0.3699997,-0.02 -0.7298442,-0.05914 -1.0898438,-0.119141 -0.2199998,-0.04 -0.4308596,-0.101406 -0.6308594,-0.191406 -0.09,-0.04 -0.18,-0.0982 -0.25,-0.158203 -0.07,-0.08 -0.1201563,-0.160001 -0.1601562,-0.25 -0.09,-0.2 -0.1494532,-0.41086 -0.1894532,-0.63086 -0.06,-0.36 -0.1010937,-0.719844 -0.1210937,-1.089844 C 1.5090625,10.970235 1.5,10.459218 1.5,9.9492188 v -0.00977 -3.8789062 c 0,-0.5199995 0.00906,-1.0307818 0.039063,-1.5507813 0.02,-0.3699996 0.061094,-0.7298441 0.1210937,-1.0898437 0.04,-0.2199998 0.099453,-0.4308596 0.1894532,-0.6308594 0.04,-0.09 0.090156,-0.1700001 0.1601562,-0.25 0.07,-0.06 0.1600001,-0.1182032 0.25,-0.1582031 0.1999998,-0.09 0.4108596,-0.1514063 0.6308594,-0.1914063 0.3599996,-0.06 0.7198441,-0.099141 1.0898438,-0.1191406 0.5199994,-0.03 1.0288286,-0.041016 1.5488281,-0.041016 z"
     style="fill:url(#oomox);fill-rule:evenodd"
     id="path2"
     class="ColorScheme-Text"/>
  <metadata
     id="metadata26">
    <rdf:RDF>
      <cc:Work
         rdf:about="">
        <cc:license
           rdf:resource="http://creativecommons.org/licenses/by-sa/4.0/" />
        <dc:creator>
          <cc:Agent>
            <dc:title>dreifacherspass</dc:title>
          </cc:Agent>
        </dc:creator>
      </cc:Work>
      <cc:License
         rdf:about="http://creativecommons.org/licenses/by-sa/4.0/">
        <cc:permits
           rdf:resource="http://creativecommons.org/ns#Reproduction" />
        <cc:permits
           rdf:resource="http://creativecommons.org/ns#Distribution" />
        <cc:requires
           rdf:resource="http://creativecommons.org/ns#Notice" />
        <cc:requires
           rdf:resource="http://creativecommons.org/ns#Attribution" />
        <cc:permits
           rdf:resource="http://creativecommons.org/ns#DerivativeWorks" />
        <cc:requires
           rdf:resource="http://creativecommons.org/ns#ShareAlike" />
      </cc:License>
    </rdf:RDF>
  </metadata>
</svg>

<svg xmlns="http://www.w3.org/2000/svg" width="16" height="16" version="1.1">
 <defs>
  <style id="current-color-scheme" type="text/css">
   .ColorScheme-Text { color: #ececec; } .ColorScheme-Highlight { color: #1AD6AB; }
  </style>
  <linearGradient id="arrongin" x1="0%" x2="0%" y1="0%" y2="100%">
   <stop id="stop3" offset="0%" stop-color="#dd9b44"/>
   <stop id="stop5" offset="100%" stop-color="#ad6c16"/>
  </linearGradient>
  <linearGradient id="aurora" x1="0%" x2="0%" y1="0%" y2="100%">
   <stop id="stop8" offset="0%" stop-color="#09D4DF"/>
   <stop id="stop10" offset="100%" stop-color="#9269F4"/>
  </linearGradient>
  <linearGradient id="cyberblue" x1="0%" x2="0%" y1="0%" y2="100%">
   <stop id="stop13" offset="0%" stop-color="#07B3FF"/>
   <stop id="stop15" offset="100%" stop-color="#007DE8"/>
  </linearGradient>
  <linearGradient id="cyberneon" x1="0%" x2="0%" y1="0%" y2="100%">
   <stop id="stop18" offset="0%" stop-color="#0abdc6"/>
   <stop id="stop20" offset="100%" stop-color="#ea00d9"/>
  </linearGradient>
  <linearGradient id="fitdance" x1="0%" x2="0%" y1="0%" y2="100%">
   <stop id="stop23" offset="0%" stop-color="#1AD6AB"/>
   <stop id="stop25" offset="100%" stop-color="#329DB6"/>
  </linearGradient>
  <linearGradient id="oomox" x1="0%" x2="0%" y1="0%" y2="100%">
   <stop id="stop28" offset="0%" stop-color="#efefe7"/>
   <stop id="stop30" offset="100%" stop-color="#8f8f8b"/>
  </linearGradient>
  <linearGradient id="rainblue" x1="0%" x2="0%" y1="0%" y2="100%">
   <stop id="stop33" offset="0%" stop-color="#00F260"/>
   <stop id="stop35" offset="100%" stop-color="#0575E6"/>
  </linearGradient>
  <linearGradient id="redcarbon" x1="0%" x2="100%" y1="0%" y2="100%">
   <stop id="stop38" offset="0%" stop-color="#FF6D57"/>
   <stop id="stop40" offset="50%" stop-color="#FF5160"/>
   <stop id="stop42" offset="100%" stop-color="#F50F22"/>
  </linearGradient>
  <linearGradient id="sunrise" x1="0%" x2="0%" y1="0%" y2="100%">
   <stop id="stop45" offset="0%" stop-color="#FF8501"/>
   <stop id="stop47" offset="100%" stop-color="#FFCB01"/>
  </linearGradient>
  <linearGradient id="telinkrin" x1="0%" x2="0%" y1="0%" y2="100%">
   <stop id="stop50" offset="0%" stop-color="#b2ced6"/>
   <stop id="stop52" offset="100%" stop-color="#6da5b7"/>
  </linearGradient>
  <linearGradient id="60spsycho" x1="0%" x2="0%" y1="0%" y2="100%">
   <stop id="stop55" offset="0%" stop-color="#df5940"/>
   <stop id="stop57" offset="25%" stop-color="#d8d15f"/>
   <stop id="stop59" offset="50%" stop-color="#e9882a"/>
   <stop id="stop61" offset="100%" stop-color="#279362"/>
  </linearGradient>
  <linearGradient id="90ssummer" x1="0%" x2="0%" y1="0%" y2="100%">
   <stop id="stop64" offset="0%" stop-color="#f618c7"/>
   <stop id="stop66" offset="20%" stop-color="#94ffab"/>
   <stop id="stop68" offset="50%" stop-color="#fbfd54"/>
   <stop id="stop70" offset="100%" stop-color="#0f83ae"/>
  </linearGradient>
 </defs>
 <path fill="currentColor" class="ColorScheme-Text" fill-rule="evenodd" d="M 10.465 0.533 C 15.308 0.533 16 1.224 16 6.063 L 16 9.938 C 16 14.776 15.308 15.467 10.465 15.467 L 5.535 15.467 C 0.692 15.467 0 14.776 0 9.938 L 0 6.063 C 0 1.224 0.692 0.533 5.535 0.533 L 10.465 0.533 Z M 10.47 2.03 C 10.99 2.03 11.5 2.04 12.02 2.07 C 12.39 2.09 12.75 2.13 13.11 2.19 C 13.33 2.23 13.54 2.29 13.74 2.38 C 13.83 2.42 13.92 2.48 13.99 2.54 C 14.06 2.62 14.11 2.7 14.15 2.79 C 14.24 2.99 14.3 3.2 14.34 3.42 C 14.4 3.78 14.44 4.14 14.46 4.51 C 14.49 5.03 14.5 5.54 14.5 6.06 C 14.5 6.06 14.5 6.06 14.5 6.06 L 14.5 9.94 C 14.5 9.94 14.5 9.94 14.5 9.95 C 14.5 10.46 14.49 10.97 14.46 11.49 C 14.44 11.86 14.4 12.22 14.34 12.58 C 14.3 12.8 14.24 13.01 14.15 13.21 C 14.11 13.3 14.06 13.38 13.99 13.46 C 13.92 13.52 13.83 13.58 13.74 13.62 C 13.54 13.71 13.33 13.77 13.11 13.81 C 12.75 13.87 12.39 13.91 12.02 13.93 C 11.5 13.96 10.99 13.97 10.47 13.97 C 10.47 13.97 10.47 13.97 10.47 13.97 L 5.53 13.97 C 5.53 13.97 5.53 13.97 5.53 13.97 C 5.01 13.97 4.5 13.96 3.98 13.93 C 3.61 13.91 3.25 13.87 2.89 13.81 C 2.67 13.77 2.46 13.71 2.26 13.62 C 2.17 13.58 2.08 13.52 2.01 13.46 C 1.94 13.38 1.89 13.3 1.85 13.21 C 1.76 13.01 1.7 12.8 1.66 12.58 C 1.6 12.22 1.56 11.86 1.54 11.49 C 1.51 10.97 1.5 10.46 1.5 9.95 C 1.5 9.94 1.5 9.94 1.5 9.94 L 1.5 6.06 C 1.5 6.06 1.5 6.06 1.5 6.06 C 1.5 5.54 1.51 5.03 1.54 4.51 C 1.56 4.14 1.6 3.78 1.66 3.42 C 1.7 3.2 1.76 2.99 1.85 2.79 C 1.89 2.7 1.94 2.62 2.01 2.54 C 2.08 2.48 2.17 2.42 2.26 2.38 C 2.46 2.29 2.67 2.23 2.89 2.19 C 3.25 2.13 3.61 2.09 3.98 2.07 C 4.5 2.04 5.01 2.03 5.53 2.03 C 5.53 2.03 5.53 2.03 5.53 2.03 L 10.47 2.03 C 10.47 2.03 10.47 2.03 10.47 2.03 Z M 9.32 4 C 11.915 4 12.286 4.37 12.286 6.962 L 12.286 9.038 C 12.286 11.63 11.915 12 9.32 12 L 6.68 12 C 4.085 12 3.714 11.63 3.714 9.038 L 3.714 6.962 C 3.714 4.37 4.085 4 6.68 4 L 9.32 4 Z"/>
</svg>
